public/bouton-app-store.svg

<svg width="175" height="54" viewBox="0 0 175 54" fill="none" xmlns="http://www.w3.org/2000/svg">
<rect width="175" height="53.46" transform="translate(0 0.269531)" fill="#131313"/>
<path d="M43.0853 27.477C43.098 26.5114 43.3546 25.5647 43.8313 24.7248C44.308 23.885 44.9893 23.1793 45.8118 22.6733C45.2892 21.9268 44.5997 21.3125 43.7982 20.879C42.9967 20.4455 42.1052 20.2048 41.1944 20.176C39.2502 19.9723 37.3662 21.339 36.3756 21.339C35.3665 21.339 33.8412 20.1956 32.2003 20.2304C31.1383 20.2646 30.1032 20.5735 29.1961 21.1267C28.2889 21.68 27.5405 22.4588 27.0239 23.3873C24.7858 27.2618 26.4545 32.9566 28.5989 36.0893C29.6717 37.6226 30.925 39.3353 32.566 39.2752C34.1711 39.208 34.7705 38.251 36.7089 38.251C38.6276 38.251 39.19 39.2752 40.8634 39.237C42.5854 39.208 43.6709 37.6955 44.7055 36.1471C45.4764 35.0545 46.0697 33.8469 46.4633 32.5689C45.4622 32.1459 44.6079 31.4374 44.007 30.5318C43.406 29.6263 43.0862 28.5638 43.0853 27.477ZM39.9237 18.1149C40.8629 16.9878 41.3258 15.539 41.2141 14.0761C39.779 14.2268 38.4534 14.9127 37.5016 15.9972C36.5622 17.0665 36.086 18.4651 36.1777 19.8855C36.8954 19.893 37.6054 19.7375 38.2543 19.4308C38.9031 19.1241 39.474 18.6742 39.9237 18.1149ZM55.6796 20.9988V15.069H53.5075V14.0935H58.9199V15.069H56.7524V20.9988H55.6796ZM63.9076 19.5916C63.7679 20.0681 63.4651 20.4802 63.0521 20.7559C62.6391 21.0316 62.1423 21.1532 61.6487 21.0995C61.3053 21.1084 60.9642 21.0425 60.6488 20.9064C60.3335 20.7703 60.0515 20.5672 59.8225 20.3112C59.5935 20.0552 59.4229 19.7525 59.3226 19.424C59.2223 19.0955 59.1947 18.7491 59.2416 18.4089C59.196 18.0676 59.2243 17.7205 59.3245 17.3911C59.4247 17.0616 59.5945 16.7576 59.8224 16.4995C60.0503 16.2414 60.331 16.0353 60.6455 15.8951C60.96 15.755 61.3009 15.684 61.6452 15.687C63.0953 15.687 63.969 16.6776 63.969 18.314V18.6727H60.2889V18.7306C60.2728 18.9219 60.2968 19.1145 60.3595 19.2959C60.4222 19.4774 60.5221 19.6438 60.6529 19.7844C60.7836 19.9249 60.9423 20.0366 61.1188 20.1122C61.2953 20.1878 61.4856 20.2257 61.6776 20.2234C61.9236 20.2528 62.1727 20.2084 62.3934 20.0959C62.614 19.9834 62.7963 19.8078 62.917 19.5916H63.9076ZM60.2901 17.9136H62.9217C62.935 17.7385 62.9115 17.5627 62.8527 17.3973C62.7939 17.2319 62.7011 17.0807 62.5803 16.9534C62.4595 16.8261 62.3134 16.7254 62.1513 16.658C61.9893 16.5906 61.8149 16.5578 61.6394 16.5619C61.4616 16.5599 61.2851 16.5934 61.1204 16.6606C60.9557 16.7278 60.8061 16.8272 60.6804 16.953C60.5547 17.0788 60.4554 17.2285 60.3884 17.3933C60.3213 17.5581 60.2879 17.7345 60.2901 17.9124V17.9136ZM61.0261 14.9163L62.2273 13.2695H63.4332L62.0885 14.9163H61.0261ZM65.3982 13.7521H66.4258V20.9988H65.3982V13.7521ZM72.521 19.5916C72.3814 20.0678 72.0787 20.4798 71.6659 20.7555C71.2532 21.0312 70.7567 21.1529 70.2632 21.0995C69.9199 21.1084 69.5787 21.0425 69.2633 20.9064C68.948 20.7703 68.666 20.5672 68.437 20.3112C68.208 20.0552 68.0375 19.7525 67.9371 19.424C67.8368 19.0955 67.8092 18.7491 67.8562 18.4089C67.8106 18.0677 67.8388 17.7207 67.9389 17.3913C68.0391 17.062 68.2088 16.758 68.4365 16.5C68.6643 16.2419 68.9449 16.0358 69.2592 15.8955C69.5736 15.7552 69.9144 15.6842 70.2586 15.687C71.7086 15.687 72.5835 16.6776 72.5835 18.314V18.6727H68.9035V18.7306C68.8873 18.9219 68.9114 19.1145 68.974 19.2959C69.0367 19.4774 69.1366 19.6438 69.2674 19.7844C69.3982 19.9249 69.5569 20.0366 69.7334 20.1122C69.9098 20.1878 70.1002 20.2257 70.2922 20.2234C70.5379 20.2525 70.7868 20.208 71.0072 20.0955C71.2277 19.983 71.4098 19.8076 71.5304 19.5916H72.521ZM68.9035 17.9136H71.535C71.5483 17.7385 71.5248 17.5627 71.466 17.3973C71.4072 17.2319 71.3145 17.0807 71.1937 16.9534C71.0729 16.8261 70.9267 16.7254 70.7647 16.658C70.6027 16.5906 70.4283 16.5578 70.2528 16.5619C70.075 16.5599 69.8985 16.5934 69.7338 16.6606C69.5691 16.7278 69.4195 16.8272 69.2938 16.953C69.1681 17.0788 69.0688 17.2285 69.0017 17.3933C68.9347 17.5581 68.9013 17.7345 68.9035 17.9124V17.9136ZM69.6406 14.9163L70.8419 13.2695H72.0477L70.703 14.9163H69.6406ZM77.3757 17.49C77.3101 17.22 77.1499 16.9824 76.9243 16.8202C76.6986 16.658 76.4224 16.582 76.1455 16.6059C75.2845 16.6059 74.7568 17.2655 74.7568 18.3765C74.7568 19.5059 75.2891 20.1818 76.1455 20.1818C76.4197 20.2133 76.6959 20.1438 76.9224 19.9861C77.1489 19.8284 77.3101 19.5935 77.3757 19.3254H78.3767C78.3102 19.8528 78.0404 20.3335 77.6247 20.6649C77.209 20.9963 76.6803 21.1522 76.1513 21.0995C75.8028 21.1106 75.4561 21.0454 75.1354 20.9085C74.8147 20.7716 74.5279 20.5663 74.2948 20.3069C74.0618 20.0475 73.8883 19.7404 73.7864 19.4069C73.6845 19.0735 73.6566 18.7218 73.7049 18.3765C73.6594 18.0337 73.6892 17.6852 73.7922 17.3552C73.8952 17.0252 74.0689 16.7216 74.3013 16.4655C74.5336 16.2095 74.819 16.0072 75.1375 15.8728C75.456 15.7383 75.8 15.6749 76.1455 15.687C76.679 15.6377 77.2107 15.7985 77.6274 16.1352C78.0441 16.472 78.3129 16.9581 78.3767 17.49H77.3757ZM79.7411 13.7521H80.7606V16.6244H80.8416C80.9786 16.3246 81.2046 16.0742 81.4889 15.9073C81.7732 15.7405 82.1019 15.6651 82.4305 15.6916C82.6827 15.6778 82.9348 15.7198 83.1689 15.8147C83.403 15.9095 83.6133 16.0549 83.7847 16.2404C83.9562 16.4258 84.0846 16.6469 84.1607 16.8877C84.2369 17.1285 84.259 17.3832 84.2254 17.6335V20.9988H83.1954V17.8881C83.1954 17.0549 82.8089 16.6336 82.0822 16.6336C81.9055 16.6195 81.7278 16.6441 81.5615 16.7056C81.3953 16.7672 81.2444 16.8643 81.1195 16.9901C80.9946 17.1159 80.8986 17.2674 80.8382 17.4341C80.7778 17.6008 80.7545 17.7786 80.7699 17.9552V20.9988H79.7411V13.7521ZM85.5192 19.5244C85.5192 18.5871 86.217 18.0455 87.4564 17.9691L88.8683 17.8881V17.4379C88.8683 16.8871 88.5049 16.5769 87.8013 16.5769C87.2273 16.5769 86.8292 16.7876 86.7158 17.1556H85.7206C85.8247 16.261 86.6672 15.6859 87.8499 15.6859C89.1553 15.6859 89.8913 16.3374 89.8913 17.4379V20.9988H88.9018V20.2662H88.8208C88.6557 20.5291 88.4237 20.7434 88.1486 20.8871C87.8735 21.0309 87.5651 21.099 87.2551 21.0844C87.0364 21.107 86.8153 21.0836 86.6062 21.0156C86.3971 20.9476 86.2046 20.8365 86.0411 20.6895C85.8775 20.5426 85.7466 20.3629 85.6567 20.1623C85.5668 19.9616 85.52 19.7443 85.5192 19.5244ZM88.8683 19.0789V18.6438L87.5953 18.7248C86.8778 18.7734 86.5526 19.0176 86.5526 19.477C86.5526 19.9457 86.96 20.2176 87.5189 20.2176C87.6828 20.2343 87.8484 20.2178 88.0058 20.1692C88.1632 20.1205 88.3092 20.0407 88.4351 19.9345C88.561 19.8282 88.6642 19.6977 88.7387 19.5507C88.8131 19.4037 88.8572 19.2433 88.8683 19.0789ZM91.5022 15.7889H92.4916V16.5874H92.5691C92.6799 16.3099 92.8758 16.0747 93.1286 15.9156C93.3815 15.7565 93.6783 15.6818 93.9764 15.7021C94.1303 15.7009 94.2842 15.7148 94.4346 15.7449V16.7598C94.2459 16.7194 94.0536 16.6984 93.8606 16.6973C93.6909 16.6821 93.5198 16.7026 93.3584 16.7575C93.197 16.8124 93.0489 16.9004 92.9236 17.0159C92.7982 17.1314 92.6984 17.2719 92.6306 17.4283C92.5628 17.5847 92.5285 17.7535 92.5298 17.924V20.9999H91.5022V15.7889ZM95.3801 21.5207H96.4332C96.52 21.8991 96.9539 22.1433 97.6483 22.1433C98.5047 22.1433 99.0138 21.7359 99.0138 21.0474V20.0475H98.9363C98.7749 20.3275 98.5393 20.5574 98.2554 20.7118C97.9715 20.8662 97.6505 20.9391 97.3277 20.9224C95.9969 20.9224 95.1753 19.8948 95.1753 18.3336C95.1753 16.7447 96.0062 15.7021 97.3381 15.7021C97.6689 15.6905 97.9965 15.7701 98.2851 15.9322C98.5737 16.0942 98.8122 16.3325 98.9745 16.6209H99.0555V15.7877H100.041V21.0416C100.041 22.2336 99.1076 22.9904 97.6344 22.9904C96.3325 22.9904 95.49 22.406 95.3801 21.5207ZM99.0324 18.329C99.0324 17.291 98.4954 16.6255 97.6194 16.6255C96.7341 16.6255 96.2376 17.291 96.2376 18.329C96.2376 19.3682 96.7352 20.0325 97.6194 20.0325C98.5012 20.0325 99.0324 19.3728 99.0324 18.329ZM106.086 19.5927C105.946 20.0688 105.644 20.4806 105.231 20.7563C104.819 21.0319 104.322 21.1538 103.829 21.1006C103.486 21.1095 103.145 21.0437 102.829 20.9076C102.514 20.7714 102.232 20.5683 102.003 20.3124C101.774 20.0564 101.603 19.7536 101.503 19.4251C101.403 19.0966 101.375 18.7503 101.422 18.41C101.376 18.0689 101.404 17.7219 101.504 17.3926C101.604 17.0633 101.774 16.7592 102.002 16.5012C102.229 16.2431 102.51 16.0369 102.824 15.8966C103.138 15.7564 103.479 15.6853 103.823 15.6882C105.273 15.6882 106.149 16.6788 106.149 18.3151V18.6739H102.469V18.7317C102.453 18.9229 102.477 19.1154 102.54 19.2968C102.602 19.4782 102.702 19.6445 102.833 19.7851C102.964 19.9256 103.122 20.0373 103.298 20.113C103.475 20.1887 103.665 20.2267 103.857 20.2246C104.103 20.2537 104.352 20.2092 104.572 20.0967C104.792 19.9842 104.975 19.8088 105.095 19.5927H106.086ZM102.468 17.9147H105.101C105.114 17.7396 105.091 17.5636 105.032 17.3982C104.973 17.2327 104.88 17.0815 104.759 16.9541C104.638 16.8268 104.492 16.7262 104.33 16.6588C104.168 16.5914 103.993 16.5588 103.818 16.5631C103.64 16.561 103.463 16.5946 103.299 16.6618C103.134 16.7289 102.984 16.8284 102.859 16.9542C102.733 17.08 102.634 17.2297 102.566 17.3945C102.499 17.5592 102.466 17.7369 102.468 17.9147ZM107.53 15.7889H108.519V16.5874H108.596C108.707 16.3099 108.902 16.0747 109.155 15.9156C109.408 15.7565 109.705 15.6818 110.003 15.7021C110.157 15.7009 110.311 15.7148 110.462 15.7449V16.7598C110.274 16.7194 110.081 16.6984 109.888 16.6973C109.719 16.6821 109.548 16.7026 109.386 16.7575C109.225 16.8124 109.077 16.9004 108.951 17.0159C108.826 17.1314 108.726 17.2719 108.658 17.4283C108.591 17.5847 108.556 17.7535 108.558 17.924V20.9999H107.529L107.53 15.7889ZM114.168 18.3927C114.168 16.7447 115.014 15.7021 116.331 15.7021C116.656 15.6872 116.979 15.7653 117.262 15.9272C117.545 16.0891 117.776 16.3281 117.928 16.6163H118.005V13.7533H119.034V20.9976H118.048V20.176H117.967C117.803 20.4623 117.564 20.6983 117.276 20.8585C116.987 21.0186 116.661 21.0967 116.331 21.0844C115.005 21.0844 114.167 20.0429 114.167 18.3903L114.168 18.3927ZM115.23 18.3927C115.23 19.4967 115.751 20.1632 116.622 20.1632C117.489 20.1632 118.025 19.4874 118.025 18.3961C118.025 17.3106 117.483 16.6255 116.622 16.6255C115.757 16.6255 115.23 17.2979 115.23 18.3927ZM120.424 19.5268C120.424 18.5894 121.123 18.0466 122.362 17.9703L123.774 17.8893V17.4391C123.774 16.8882 123.41 16.5781 122.707 16.5781C122.133 16.5781 121.735 16.7887 121.621 17.1567H120.625C120.73 16.2622 121.572 15.687 122.755 15.687C124.061 15.687 124.797 16.3385 124.797 17.4391V20.9999H123.808V20.2674H123.727C123.562 20.5302 123.33 20.7445 123.055 20.8883C122.78 21.032 122.471 21.1001 122.161 21.0856C121.942 21.1082 121.721 21.0848 121.512 21.0167C121.303 20.9487 121.111 20.8377 120.947 20.6907C120.784 20.5437 120.653 20.3641 120.563 20.1634C120.473 19.9628 120.426 19.7455 120.425 19.5256L120.424 19.5268ZM123.774 19.0801V18.6449L122.501 18.7259C121.784 18.7745 121.459 19.0187 121.459 19.4782C121.459 19.9468 121.865 20.2188 122.425 20.2188C122.589 20.2355 122.754 20.219 122.912 20.1703C123.069 20.1217 123.215 20.0419 123.341 19.9356C123.467 19.8294 123.57 19.6989 123.645 19.5519C123.719 19.4049 123.763 19.2444 123.774 19.0801ZM126.408 15.7889H127.398V16.6163H127.475C127.606 16.319 127.826 16.0698 128.104 15.9034C128.383 15.737 128.707 15.6618 129.03 15.6882C129.284 15.6693 129.538 15.7077 129.775 15.8005C130.012 15.8933 130.225 16.0381 130.398 16.2242C130.571 16.4103 130.7 16.633 130.775 16.8757C130.851 17.1185 130.871 17.3751 130.833 17.6266V20.9999H129.806V17.8835C129.806 17.0456 129.441 16.629 128.681 16.629C128.509 16.6214 128.337 16.651 128.178 16.7158C128.018 16.7805 127.875 16.8789 127.757 17.0043C127.638 17.1296 127.549 17.2789 127.494 17.442C127.438 17.6051 127.419 17.7782 127.437 17.9494V20.9988H126.408V15.7889ZM134.33 15.6882C135.501 15.6882 136.267 16.2332 136.367 17.1521H135.381C135.287 16.7702 134.913 16.5249 134.328 16.5249C133.756 16.5249 133.319 16.798 133.319 17.2042C133.319 17.5166 133.582 17.7134 134.148 17.8407L135.013 18.042C136.004 18.2735 136.468 18.6982 136.468 19.4654C136.468 20.4445 135.554 21.1006 134.31 21.1006C133.07 21.1006 132.262 20.5405 132.17 19.617H133.2C133.289 19.8368 133.449 20.0205 133.655 20.1384C133.86 20.2563 134.1 20.3018 134.334 20.2674C134.974 20.2674 135.43 19.9804 135.43 19.5638C135.43 19.2525 135.186 19.0523 134.664 18.9273L133.756 18.7167C132.764 18.4818 132.305 18.0374 132.305 17.262C132.305 16.3385 133.151 15.6882 134.33 15.6882ZM55.1508 24.8929H57.3032V39.2636H55.1508V24.8929ZM59.8955 30.1503L61.0701 24.8929H63.1612L61.7378 30.1514L59.8955 30.1503ZM71.292 35.381H65.8148L64.499 39.2636H62.1787L67.3678 24.8929H69.7783L74.9663 39.2636H72.6067L71.292 35.381ZM66.3818 33.5873H70.7238L68.5829 27.2826H68.5239L66.3818 33.5873ZM86.1707 34.027C86.1707 37.2812 84.4279 39.3735 81.7987 39.3735C81.1324 39.4084 80.4699 39.2549 79.8868 38.9307C79.3037 38.6065 78.8237 38.1247 78.5017 37.5404H78.4519V42.7295H76.3017V28.7859H78.3825V30.5287H78.423C78.7595 29.9473 79.2474 29.4681 79.8347 29.1421C80.422 28.816 81.0868 28.6553 81.7581 28.6771C84.4175 28.6771 86.1707 30.7798 86.1707 34.027ZM83.9604 34.027C83.9604 31.9047 82.8645 30.509 81.1911 30.509C79.5478 30.509 78.4426 31.9324 78.4426 34.027C78.4426 36.1367 79.5478 37.5509 81.1911 37.5509C82.8645 37.5509 83.9604 36.1679 83.9604 34.027ZM97.7015 34.027C97.7015 37.2812 95.9587 39.3735 93.3295 39.3735C92.6632 39.4084 92.0006 39.2549 91.4176 38.9307C90.8345 38.6065 90.3545 38.1247 90.0325 37.5404H89.9827V42.7295H87.8337V28.7859H89.9156V30.5287H89.9549C90.2918 29.9473 90.7799 29.4682 91.3674 29.1421C91.9549 28.8161 92.6197 28.6554 93.2913 28.6771C95.9506 28.6771 97.7027 30.7787 97.7027 34.0259L97.7015 34.027ZM95.4912 34.027C95.4912 31.9047 94.3953 30.509 92.7231 30.509C91.0798 30.509 89.9746 31.9324 89.9746 34.027C89.9746 36.1367 91.0798 37.5509 92.7231 37.5509C94.3953 37.5509 95.4912 36.1679 95.4912 34.027ZM105.323 35.2595C105.483 36.6852 106.867 37.6203 108.759 37.6203C110.571 37.6203 111.875 36.6852 111.875 35.3995C111.875 34.2851 111.089 33.6174 109.227 33.1591L107.363 32.7101C104.725 32.0736 103.5 30.8388 103.5 28.8356C103.5 26.3568 105.661 24.6534 108.73 24.6534C111.767 24.6534 113.847 26.3568 113.918 28.8356H111.747C111.617 27.4007 110.431 26.5362 108.699 26.5362C106.966 26.5362 105.781 27.4122 105.781 28.6864C105.781 29.7024 106.538 30.3007 108.391 30.7578L109.974 31.1467C112.923 31.8445 114.147 33.0295 114.147 35.1311C114.147 37.8193 112.006 39.5031 108.599 39.5031C105.412 39.5031 103.261 37.8598 103.122 35.2595H105.323ZM118.79 26.3082V28.787H120.783V30.4905H118.79V36.2675C118.79 37.1643 119.189 37.5821 120.065 37.5821C120.301 37.5786 120.537 37.5613 120.771 37.5323V39.2254C120.378 39.2996 119.978 39.3329 119.578 39.3249C117.457 39.3249 116.629 38.5287 116.629 36.4966V30.4905H115.105V28.7847H116.629V26.3082H118.79ZM121.935 34.027C121.935 30.7289 123.876 28.6574 126.905 28.6574C129.942 28.6574 131.875 30.7289 131.875 34.027C131.875 37.3321 129.952 39.3967 126.905 39.3967C123.858 39.3967 121.935 37.3321 121.935 34.027ZM129.683 34.027C129.683 31.7646 128.647 30.4303 126.905 30.4303C125.162 30.4303 124.127 31.775 124.127 34.027C124.127 36.2976 125.162 37.6214 126.905 37.6214C128.647 37.6214 129.683 36.2976 129.683 34.027ZM133.648 28.787H135.699V30.5704H135.748C135.887 30.0132 136.213 29.5209 136.672 29.1761C137.131 28.8313 137.695 28.6551 138.269 28.6771C138.516 28.6771 138.764 28.7037 139.006 28.7581V30.7694C138.693 30.6738 138.367 30.63 138.04 30.6398C137.727 30.6269 137.416 30.6818 137.126 30.8008C136.837 30.9198 136.577 31.1 136.364 31.3291C136.151 31.5581 135.99 31.8306 135.892 32.1277C135.795 32.4248 135.763 32.7396 135.798 33.0503V39.2647H133.648V28.787ZM148.92 36.1876C148.631 38.0901 146.779 39.3955 144.409 39.3955C141.361 39.3955 139.469 37.353 139.469 34.0768C139.469 30.7902 141.371 28.6586 144.318 28.6586C147.217 28.6586 149.039 30.649 149.039 33.8268V34.564H141.64V34.6936C141.588 35.275 141.723 35.8579 142.027 36.3562C142.331 36.8546 142.787 37.2421 143.328 37.4617C143.686 37.6087 144.072 37.677 144.459 37.662C144.967 37.7096 145.477 37.5918 145.913 37.3261C146.349 37.0605 146.687 36.6611 146.878 36.1876H148.92ZM141.65 33.0607H146.888C146.907 32.7141 146.854 32.3673 146.733 32.042C146.612 31.7166 146.425 31.4197 146.184 31.1698C145.944 30.9195 145.653 30.722 145.332 30.5897C145.011 30.4575 144.666 30.3933 144.319 30.4014C143.969 30.3989 143.621 30.466 143.297 30.5987C142.973 30.7313 142.678 30.927 142.43 31.1743C142.182 31.4216 141.985 31.7156 141.851 32.0395C141.717 32.3633 141.649 32.7104 141.65 33.0607Z" fill="white"/>
</svg>

<svg xmlns="http://www.w3.org/2000/svg" width="175" height="54" fill="none"><path fill="#131313" d="M0 .27h175v53.46H0z"/><path fill="#fff" d="M43.085 27.477a5.73 5.73 0 0 1 2.727-4.804 5.86 5.86 0 0 0-4.618-2.497c-1.944-.204-3.828 1.163-4.818 1.163-1.01 0-2.535-1.143-4.176-1.109a6.15 6.15 0 0 0-5.176 3.157c-2.238 3.875-.57 9.57 1.575 12.702 1.073 1.534 2.326 3.246 3.967 3.186 1.605-.067 2.204-1.024 4.143-1.024 1.919 0 2.481 1.024 4.154.986 1.722-.029 2.808-1.541 3.843-3.09a12.7 12.7 0 0 0 1.757-3.578 5.53 5.53 0 0 1-3.378-5.092m-3.161-9.362a5.64 5.64 0 0 0 1.29-4.039 5.74 5.74 0 0 0-3.712 1.921 5.37 5.37 0 0 0-1.324 3.889 4.74 4.74 0 0 0 3.746-1.771m15.756 2.884v-5.93h-2.172v-.976h5.412v.976h-2.168v5.93zm8.228-1.407a2.115 2.115 0 0 1-2.26 1.508 2.37 2.37 0 0 1-2.406-2.691 2.404 2.404 0 0 1 2.403-2.722c1.45 0 2.324.99 2.324 2.627v.359h-3.68v.058a1.377 1.377 0 0 0 1.389 1.492 1.25 1.25 0 0 0 1.239-.631zm-3.618-1.678h2.632a1.257 1.257 0 0 0-1.283-1.352 1.334 1.334 0 0 0-1.349 1.35zm.736-2.998 1.201-1.646h1.206l-1.344 1.646zm4.372-1.164h1.028V21h-1.028zm7.123 5.84a2.115 2.115 0 0 1-2.258 1.508 2.37 2.37 0 0 1-2.407-2.691 2.404 2.404 0 0 1 2.403-2.722c1.45 0 2.325.99 2.325 2.627v.359h-3.68v.058a1.377 1.377 0 0 0 1.388 1.492 1.25 1.25 0 0 0 1.238-.631zm-3.618-1.678h2.632a1.257 1.257 0 0 0-1.282-1.352 1.334 1.334 0 0 0-1.35 1.35zm.738-2.998 1.2-1.646h1.207l-1.345 1.646zm7.735 2.574a1.16 1.16 0 0 0-1.23-.884c-.862 0-1.39.66-1.39 1.77 0 1.13.533 1.806 1.39 1.806a1.133 1.133 0 0 0 1.23-.857h1a2.04 2.04 0 0 1-2.225 1.774 2.393 2.393 0 0 1-2.446-2.722 2.378 2.378 0 0 1 2.44-2.69 2.057 2.057 0 0 1 2.232 1.803zm2.365-3.738h1.02v2.872h.08a1.605 1.605 0 0 1 1.59-.932 1.716 1.716 0 0 1 1.794 1.942v3.365h-1.03v-3.11c0-.834-.386-1.255-1.113-1.255a1.22 1.22 0 0 0-1.312 1.321V21h-1.03zm5.778 5.772c0-.937.698-1.479 1.937-1.555l1.412-.08v-.451c0-.55-.363-.861-1.067-.861-.574 0-.972.21-1.085.579h-.995c.104-.895.946-1.47 2.129-1.47 1.305 0 2.041.651 2.041 1.752v3.56h-.99v-.732h-.08a1.75 1.75 0 0 1-1.566.818 1.575 1.575 0 0 1-1.736-1.56m3.35-.445v-.435l-1.274.08c-.717.05-1.042.294-1.042.753 0 .469.407.74.966.74a1.23 1.23 0 0 0 1.35-1.138m2.633-3.29h.99v.798h.077a1.41 1.41 0 0 1 1.407-.885q.232-.002.459.043v1.015a3 3 0 0 0-.574-.063 1.22 1.22 0 0 0-1.331 1.227V21h-1.028zm3.878 5.732h1.053c.087.378.52.622 1.215.622.857 0 1.366-.407 1.366-1.096v-1h-.078a1.75 1.75 0 0 1-1.608.875c-1.331 0-2.153-1.027-2.153-2.588 0-1.59.831-2.632 2.163-2.632a1.8 1.8 0 0 1 1.637.919h.08v-.833h.986v5.254c0 1.192-.933 1.948-2.407 1.948-1.302 0-2.144-.584-2.254-1.47m3.652-3.192c0-1.038-.537-1.704-1.413-1.704-.885 0-1.381.666-1.381 1.704 0 1.04.497 1.703 1.381 1.703.882 0 1.413-.66 1.413-1.703m7.054 1.264a2.116 2.116 0 0 1-2.257 1.508 2.37 2.37 0 0 1-2.326-1.676 2.4 2.4 0 0 1-.081-1.015 2.4 2.4 0 0 1 1.402-2.513c.314-.14.655-.212.999-.209 1.45 0 2.326.99 2.326 2.627v.359h-3.68v.058a1.37 1.37 0 0 0 .364 1.053 1.38 1.38 0 0 0 1.024.44 1.25 1.25 0 0 0 1.238-.632zm-3.618-1.678h2.633a1.26 1.26 0 0 0-.771-1.256 1.3 1.3 0 0 0-.512-.096 1.33 1.33 0 0 0-.959.391 1.34 1.34 0 0 0-.391.96m5.062-2.126h.989v.798h.077a1.41 1.41 0 0 1 1.407-.885q.232-.002.459.043v1.015a3 3 0 0 0-.574-.063 1.223 1.223 0 0 0-1.33 1.227V21h-1.029zm6.638 2.604c0-1.648.846-2.69 2.163-2.69a1.72 1.72 0 0 1 1.597.913h.077v-2.863h1.029v7.245h-.986v-.822h-.081a1.81 1.81 0 0 1-1.636.908c-1.326 0-2.164-1.041-2.164-2.694zm1.062 0c0 1.104.521 1.77 1.392 1.77.867 0 1.403-.676 1.403-1.767 0-1.085-.542-1.77-1.403-1.77-.865 0-1.392.672-1.392 1.767m5.194 1.134c0-.938.699-1.48 1.938-1.557l1.412-.08v-.45c0-.552-.364-.862-1.067-.862-.574 0-.972.21-1.086.579h-.996c.105-.895.947-1.47 2.13-1.47 1.306 0 2.042.652 2.042 1.752V21h-.989v-.732h-.081a1.75 1.75 0 0 1-1.566.819 1.573 1.573 0 0 1-1.736-1.56zm3.35-.447v-.435l-1.273.08c-.717.05-1.042.294-1.042.753 0 .469.406.74.966.74a1.23 1.23 0 0 0 1.349-1.138m2.634-3.291h.99v.827h.077a1.56 1.56 0 0 1 1.555-.928 1.696 1.696 0 0 1 1.803 1.939V21h-1.027v-3.116c0-.838-.365-1.255-1.125-1.255a1.194 1.194 0 0 0-1.187.813 1.2 1.2 0 0 0-.057.507V21h-1.029zm7.922-.1c1.171 0 1.937.544 2.037 1.463h-.986c-.094-.382-.468-.627-1.053-.627-.572 0-1.009.273-1.009.68 0 .312.263.508.829.636l.865.201c.991.231 1.455.656 1.455 1.423 0 .98-.914 1.636-2.158 1.636-1.24 0-2.048-.56-2.14-1.484h1.03a1.06 1.06 0 0 0 1.134.65c.64 0 1.096-.287 1.096-.703 0-.311-.244-.512-.766-.637l-.908-.21c-.992-.235-1.451-.68-1.451-1.455 0-.924.846-1.574 2.025-1.574M55.15 24.89h2.153v14.37h-2.152zm4.746 5.257 1.174-5.257h2.091l-1.423 5.258zm11.396 5.231h-5.477l-1.316 3.883h-2.32l5.189-14.371h2.41l5.188 14.37h-2.36zm-4.91-1.794h4.342l-2.141-6.304h-.06zm19.789.44c0 3.254-1.743 5.346-4.372 5.346a3.55 3.55 0 0 1-3.297-1.833h-.05v5.19h-2.15V28.786h2.08v1.743h.041a3.71 3.71 0 0 1 3.335-1.852c2.66 0 4.413 2.103 4.413 5.35m-2.21 0c0-2.122-1.096-3.518-2.77-3.518-1.643 0-2.748 1.423-2.748 3.518 0 2.11 1.105 3.524 2.748 3.524 1.674 0 2.77-1.383 2.77-3.524m13.74 0c0 3.254-1.742 5.346-4.371 5.346a3.55 3.55 0 0 1-3.297-1.833h-.05v5.19h-2.15V28.786h2.083v1.743h.039a3.72 3.72 0 0 1 3.336-1.852c2.66 0 4.412 2.102 4.412 5.349zm-2.21 0c0-2.122-1.096-3.518-2.768-3.518-1.643 0-2.748 1.423-2.748 3.518 0 2.11 1.105 3.524 2.748 3.524 1.672 0 2.768-1.383 2.768-3.524m9.832 1.233c.16 1.425 1.544 2.36 3.436 2.36 1.812 0 3.116-.935 3.116-2.22 0-1.115-.786-1.783-2.648-2.24l-1.864-.45c-2.638-.636-3.863-1.871-3.863-3.874 0-2.48 2.161-4.183 5.23-4.183 3.037 0 5.117 1.704 5.188 4.183h-2.171c-.13-1.435-1.316-2.3-3.048-2.3-1.733 0-2.918.876-2.918 2.15 0 1.016.757 1.615 2.61 2.072l1.583.389c2.949.698 4.173 1.883 4.173 3.984 0 2.688-2.141 4.372-5.548 4.372-3.187 0-5.338-1.643-5.477-4.243zm13.467-8.952v2.479h1.993v1.704h-1.993v5.776c0 .897.399 1.315 1.275 1.315q.355-.005.706-.05v1.693a5.8 5.8 0 0 1-1.193.1c-2.121 0-2.949-.796-2.949-2.828V30.49h-1.524v-1.706h1.524v-2.477zm3.145 7.719c0-3.298 1.941-5.37 4.97-5.37 3.037 0 4.97 2.072 4.97 5.37 0 3.305-1.923 5.37-4.97 5.37s-4.97-2.065-4.97-5.37m7.748 0c0-2.262-1.036-3.597-2.778-3.597-1.743 0-2.778 1.345-2.778 3.597 0 2.27 1.035 3.594 2.778 3.594 1.742 0 2.778-1.323 2.778-3.594m3.965-5.24h2.051v1.783h.049a2.5 2.5 0 0 1 2.521-1.893q.372 0 .737.081v2.011a3 3 0 0 0-.966-.13 2.17 2.17 0 0 0-2.148 1.489 2.2 2.2 0 0 0-.094.922v6.215h-2.15zm15.272 7.4c-.289 1.903-2.141 3.209-4.511 3.209-3.048 0-4.94-2.043-4.94-5.32 0-3.286 1.902-5.417 4.849-5.417 2.899 0 4.721 1.99 4.721 5.168v.737h-7.399v.13a2.726 2.726 0 0 0 2.819 2.968 2.37 2.37 0 0 0 2.419-1.474zm-7.27-3.126h5.238a2.53 2.53 0 0 0-1.556-2.471 2.5 2.5 0 0 0-1.013-.189 2.65 2.65 0 0 0-2.669 2.66"/></svg>
